X:1
T:160 - A Fé Contemplada
T:Letra: James Rowe (1865-1933) (1a., 2a. e 3a. estrofes)
T:Ricardo Pitrowsky (1891-1965) (adapt. e 4a. estrofe)
T:Música: Bentley DeForrest Ackley (1872-1958)
M:4/4
L:1/4
Q:1/4=100
K:Db
V:1
F/G/ | "Db"AA =G/A/ d/A/ | "Gb"cBB B/d/ | "Ab7"cc c/B/ A/G/ | "Db"BAA/z/ F/G/ | AA =G/A/ d/A/ | "Gb"cBB2 | "Eb7"e/B/ =A/B/ d/d/ c/B/ | "Ab"A2- "Ab7"Az || "Db"d3/c/ e/d/ A/F/ | A__A"Ab7"G2 | c3/d/ e/c/ B/A/ | "Eb7"B"Ab7"c "Db"Hd F/G/ | A/=G/ B/A/ d c/d/ | e/d/ A/=A/ "Gb"B2 | "Eb7"e/B/ =A/B/ "Ab7"d/c/ B/c/ | "Db"d2- Hd |]
w: 1.~Deus pro-me-te gran-des coi-sas con-ce-der A qual-quer que pe-ça, cren-do quehá deob-ter A res-pos-ta, sem na fé en-fra-que-cer. Su-a fé Je-sus con-tem-pla-rá._     Su-a fé Je-sus con-tem-pla-rá;    Sim, o que Je-sus pro-me-te, dá.    E-le vê o co-ra-ção    E res-pon-dea pe-ti-ção; Su-a fé Je-sus con-tem-pla-rá._
w: 2.~Deus tem pro-me-ti-doa quem não du-vi-dar Dar-lhe tu-do quan-toa E-le su-pli-car; E-leo pro-me-teu e não i-rá ne-gar! Su-a fé Je-sus con-tem-pla-rá._ 
w: 3.~Deus já gran-des ma-ra-vi-lhas o-pe-rou Por al-guém que, fir-me, nE-le con-fi-ou, E que da pro-mes-saem na-da du-vi-dou! Je-sus Cris-toa fé con-tem-pla-rá._
w: 4.~Sim, crei-a-mos no que Deus nos pro-me-teu, Pois ja-mais de-son-ra-rá o No-me seu; E-le cum-pri-rá pro-mes-sas que nos deu! Je-sus Cris-toa fé con-tem-pla-rá._          				                    
W: 
W:
W: 1. Deus promete grandes coisas conceder
W: A qualquer que peça, crendo que há de obter
W: A resposta, sem na fé enfraquecer.
W: Sua fé Jesus contemplará.
W: 
W:    (Estribilho)
W:    Sua fé Jesus contemplará;
W:    Sim, o que Jesus promete, dá.
W:    Ele vê o coração
W:    E responde a petição;              
W:    Sua fé Jesus contemplará.
W: 
W: 2. Deus tem prometido a quem não duvidar
W: Dar-lhe tudo quanto a Ele suplicar;
W: Ele o prometeu e não irá negar!
W: Sua fé Jesus contemplará.
W: 
W:
W:
W: 3. Deus já grandes maravilhas operou
W: Por alguém que, firme, nEle confiou,
W: E que da promessa em nada duvidou!
W: Jesus Cristo a fé contemplará.
W: 
W: 4. Sim, creiamos no que Deus nos prometeu,
W: Pois jamais desonrará o Nome seu;
W: Ele cumprirá promessas que nos deu!
W: Jesus Cristo a fé contemplará.
W:         
W: 





